wiki/diario_de_un_maker/plantilla_documentacion_DM.svg

<?xml version="1.0" encoding="UTF-8" standalone="no"?>
<!-- Created with Inkscape (http://www.inkscape.org/) -->

<svg
   width="1200"
   height="800"
   viewBox="0 0 317.5 211.66667"
   version="1.1"
   id="svg5"
   sodipodi:docname="plantilla_documentacion_DM.svg"
   inkscape:version="1.1.1 (1:1.1+202109281943+c3084ef5ed)"
   xmlns:inkscape="http://www.inkscape.org/namespaces/inkscape"
   xmlns:sodipodi="http://sodipodi.sourceforge.net/DTD/sodipodi-0.dtd"
   xmlns="http://www.w3.org/2000/svg"
   xmlns:svg="http://www.w3.org/2000/svg">
  <sodipodi:namedview
     id="namedview7"
     pagecolor="#ffffff"
     bordercolor="#cccccc"
     borderopacity="1"
     inkscape:pageshadow="0"
     inkscape:pageopacity="1"
     inkscape:pagecheckerboard="0"
     inkscape:document-units="mm"
     showgrid="false"
     units="px"
     width="1200px"
     showguides="false"
     inkscape:snap-global="true"
     inkscape:zoom="0.71329397"
     inkscape:cx="579.70489"
     inkscape:cy="382.7314"
     inkscape:window-width="1920"
     inkscape:window-height="1043"
     inkscape:window-x="1920"
     inkscape:window-y="0"
     inkscape:window-maximized="1"
     inkscape:current-layer="layer2" />
  <defs
     id="defs2" />
  <g
     inkscape:label="Marco"
     inkscape:groupmode="layer"
     id="layer1"
     style="display:inline">
    <g
       id="g476">
      <rect
         style="fill:#d5f6ff;fill-opacity:1;stroke:none;stroke-width:1.86312;stroke-linecap:round"
         id="rect7101-6"
         width="241.53691"
         height="6.2557015"
         x="75.478172"
         y="205.50294" />
      <path
         id="path12751"
         style="fill:#d5f6ff;fill-opacity:1;stroke:none;stroke-width:0.801462;stroke-linecap:round;stroke-miterlimit:4;stroke-dasharray:none"
         inkscape:transform-center-x="-0.14589273"
         inkscape:transform-center-y="1.364106"
         d="M 82.939453,697.03906 48.75,716.48828 13.457031,699.15039 l 7.802735,38.75586 -22.5898441,23.55469 v 5.43164 l 34.3222661,3.96094 15.570312,29.49414 h 5.322266 l 13.849609,-30.55078 38.671875,-6.86329 -28.933594,-26.73632 z"
         transform="scale(0.26458333)" />
      <path
         sodipodi:type="star"
         style="fill:#d5f6ff;fill-opacity:1;stroke:none;stroke-width:1.28504;stroke-linecap:round;stroke-miterlimit:4;stroke-dasharray:none"
         id="path12751-2"
         inkscape:flatsided="false"
         sodipodi:sides="5"
         sodipodi:cx="620.64386"
         sodipodi:cy="397.51004"
         sodipodi:r1="95.144325"
         sodipodi:r2="47.572163"
         sodipodi:arg1="0.28397816"
         sodipodi:arg2="0.91229669"
         inkscape:rounded="0"
         inkscape:randomized="0"
         transform="matrix(0.1029987,-0.07422589,0.07422589,0.1029987,-12.234644,207.95813)"
         inkscape:transform-center-x="0.098210396"
         inkscape:transform-center-y="-1.0596628"
         d="m 711.97751,424.16726 -62.22277,10.96814 -26.23976,57.47564 -29.65921,-55.78804 -62.7711,-7.19453 43.89237,-45.44704 -12.55493,-61.92211 56.78619,27.70022 55.01173,-31.07543 -8.79657,62.56672 z" />
      <path
         id="path6685"
         style="fill:#d5f6ff;fill-opacity:1;stroke:none;stroke-width:5.33012;stroke-linecap:round"
         d="M 133.58984,728.69727 A 183.37387,45.882066 0 0 0 -1.3300781,743.56836 v 56.02734 0.75196 H 285.27148 a 183.37387,45.882066 0 0 0 31.69336,-25.76758 183.37387,45.882066 0 0 0 -183.375,-45.88281 z m -182.697262,43.08984 a 183.37387,45.882066 0 0 0 -0.675781,2.79297 183.37387,45.882066 0 0 0 0.675781,2.8164 z"
         transform="scale(0.26458333)" />
      <rect
         style="fill:#d5f6ff;fill-opacity:1;stroke:none;stroke-width:2.13623;stroke-linecap:round"
         id="rect7101"
         width="317.53845"
         height="6.2557015"
         x="-0.042046081"
         y="0.069969922" />
      <rect
         style="fill:#d5f6ff;fill-opacity:1;stroke:none;stroke-width:1.74419;stroke-linecap:round"
         id="rect7101-1"
         width="211.68381"
         height="6.2557015"
         x="0.069969922"
         y="-317.4964"
         transform="rotate(90)" />
      <rect
         style="fill:#d5f6ff;fill-opacity:1;stroke:none;stroke-width:1.74364;stroke-linecap:round"
         id="rect7101-7"
         width="211.55089"
         height="6.2557001"
         x="0.010868589"
         y="-6.2136698"
         transform="matrix(-0.00146443,0.99999893,-0.99999976,-6.9601302e-4,0,0)" />
      <text
         xml:space="preserve"
         style="font-style:normal;font-weight:normal;font-size:6.1858px;line-height:1.25;font-family:sans-serif;fill:#000000;fill-opacity:1;stroke:none;stroke-width:0.154645"
         x="6.0308433"
         y="206.0266"
         id="text3583"><tspan
           sodipodi:role="line"
           id="tspan3581"
           style="stroke-width:0.154645"
           x="6.0308433"
           y="206.0266">DIARIO DE UN MAKER</tspan></text>
      <path
         style="fill:none;stroke:#000000;stroke-width:0.293078;stroke-linecap:butt;stroke-linejoin:miter;stroke-miterlimit:4;stroke-dasharray:none;stroke-opacity:1"
         d="m 72.423551,208.58276 3.66036,-3.48714"
         id="path12620" />
      <path
         style="fill:none;stroke:#000000;stroke-width:0.21638;stroke-linecap:butt;stroke-linejoin:miter;stroke-miterlimit:4;stroke-dasharray:none;stroke-opacity:1"
         d="m 73.992066,208.99083 2.475342,-2.35819"
         id="path12620-5" />
      <path
         sodipodi:type="star"
         style="fill:#d5f6ff;fill-opacity:1;stroke:none;stroke-width:1.28504;stroke-linecap:round;stroke-miterlimit:4;stroke-dasharray:none"
         id="path12895"
         inkscape:flatsided="false"
         sodipodi:sides="5"
         sodipodi:cx="283.19757"
         sodipodi:cy="544.65613"
         sodipodi:r1="26.457281"
         sodipodi:r2="13.22864"
         sodipodi:arg1="0.31871656"
         sodipodi:arg2="0.94703509"
         inkscape:rounded="0"
         inkscape:randomized="0"
         d="m 308.32242,552.94646 -17.3981,2.44719 -7.84732,15.71948 -7.70372,-15.79035 -17.37508,-2.60566 12.63695,-12.20616 -2.89107,-17.32987 15.51378,8.24654 15.58829,-8.1048 -3.0489,17.3028 z"
         transform="matrix(0.25195032,-0.12221853,0.12221853,0.25195032,-91.426079,93.486207)"
         inkscape:transform-center-x="-0.41263634"
         inkscape:transform-center-y="-0.30344944" />
      <path
         style="fill:#d5f6ff;fill-opacity:1;stroke:none;stroke-width:0.264583px;stroke-linecap:butt;stroke-linejoin:miter;stroke-opacity:1"
         d="M -0.04204608,0.06996992 22.052287,-0.02032364 0.07111365,21.96085 Z"
         id="path13530"
         sodipodi:nodetypes="cccc" />
      <path
         style="fill:#d5f6ff;fill-opacity:1;stroke:none;stroke-width:0.264583px;stroke-linecap:butt;stroke-linejoin:miter;stroke-opacity:1"
         d="M 317.4964,0.06996992 317.5867,22.16431 295.60552,0.18312992 Z"
         id="path13530-9"
         sodipodi:nodetypes="cccc" />
      <path
         style="fill:#d5f6ff;fill-opacity:1;stroke:none;stroke-width:0.264583px;stroke-linecap:butt;stroke-linejoin:miter;stroke-opacity:1"
         d="m 317.4964,211.75378 -22.09434,0.0903 21.98118,-21.98118 z"
         id="path13530-9-2"
         sodipodi:nodetypes="cccc" />
    </g>
  </g>
  <g
     inkscape:groupmode="layer"
     id="layer2"
     inkscape:label="Contenido"
     style="display:inline" />
</svg>

<?xml version="1.0" encoding="UTF-8" standalone="no"?>
<!-- Created with Inkscape (http://www.inkscape.org/) -->

<svg
   width="1200"
   height="800"
   viewBox="0 0 317.5 211.66667"
   version="1.1"
   id="svg5"
   sodipodi:docname="plantilla_documentacion_DM.svg"
   inkscape:version="1.1.1 (1:1.1+202109281943+c3084ef5ed)"
   xmlns:inkscape="http://www.inkscape.org/namespaces/inkscape"
   xmlns:sodipodi="http://sodipodi.sourceforge.net/DTD/sodipodi-0.dtd"
   xmlns="http://www.w3.org/2000/svg"
   xmlns:svg="http://www.w3.org/2000/svg">
  <sodipodi:namedview
     id="namedview7"
     pagecolor="#ffffff"
     bordercolor="#cccccc"
     borderopacity="1"
     inkscape:pageshadow="0"
     inkscape:pageopacity="1"
     inkscape:pagecheckerboard="0"
     inkscape:document-units="mm"
     showgrid="false"
     units="px"
     width="1200px"
     showguides="false"
     inkscape:snap-global="true"
     inkscape:zoom="0.71329397"
     inkscape:cx="876.91755"
     inkscape:cy="271.27665"
     inkscape:window-width="1848"
     inkscape:window-height="1016"
     inkscape:window-x="72"
     inkscape:window-y="27"
     inkscape:window-maximized="1"
     inkscape:current-layer="layer1" />
  <defs
     id="defs2" />
  <g
     inkscape:label="Layer 1"
     inkscape:groupmode="layer"
     id="layer1">
    <g
       id="g476">
      <rect
         style="fill:#d5f6ff;fill-opacity:1;stroke:none;stroke-width:1.86312;stroke-linecap:round"
         id="rect7101-6"
         width="241.53691"
         height="6.2557015"
         x="75.478172"
         y="205.50294" />
      <path
         id="path12751"
         style="fill:#d5f6ff;fill-opacity:1;stroke:none;stroke-width:0.801462;stroke-linecap:round;stroke-miterlimit:4;stroke-dasharray:none"
         inkscape:transform-center-x="-0.14589273"
         inkscape:transform-center-y="1.364106"
         d="M 82.939453 697.03906 L 48.75 716.48828 L 13.457031 699.15039 L 21.259766 737.90625 L -1.3300781 761.46094 L -1.3300781 766.89258 L 32.992188 770.85352 L 48.5625 800.34766 L 53.884766 800.34766 L 67.734375 769.79688 L 106.40625 762.93359 L 77.472656 736.19727 L 82.939453 697.03906 z "
         transform="scale(0.26458333)" />
      <path
         sodipodi:type="star"
         style="fill:#d5f6ff;fill-opacity:1;stroke:none;stroke-width:1.28504;stroke-linecap:round;stroke-miterlimit:4;stroke-dasharray:none"
         id="path12751-2"
         inkscape:flatsided="false"
         sodipodi:sides="5"
         sodipodi:cx="620.64386"
         sodipodi:cy="397.51004"
         sodipodi:r1="95.144325"
         sodipodi:r2="47.572163"
         sodipodi:arg1="0.28397816"
         sodipodi:arg2="0.91229669"
         inkscape:rounded="0"
         inkscape:randomized="0"
         transform="matrix(0.1029987,-0.07422589,0.07422589,0.1029987,-12.234644,207.95813)"
         inkscape:transform-center-x="0.098210396"
         inkscape:transform-center-y="-1.0596628"
         d="m 711.97751,424.16726 -62.22277,10.96814 -26.23976,57.47564 -29.65921,-55.78804 -62.7711,-7.19453 43.89237,-45.44704 -12.55493,-61.92211 56.78619,27.70022 55.01173,-31.07543 -8.79657,62.56672 z" />
      <path
         id="path6685"
         style="fill:#d5f6ff;fill-opacity:1;stroke:none;stroke-width:5.33012;stroke-linecap:round"
         d="M 133.58984 728.69727 A 183.37387 45.882066 0 0 0 -1.3300781 743.56836 L -1.3300781 799.5957 L -1.3300781 800.34766 L 285.27148 800.34766 A 183.37387 45.882066 0 0 0 316.96484 774.58008 A 183.37387 45.882066 0 0 0 133.58984 728.69727 z M -49.107422 771.78711 A 183.37387 45.882066 0 0 0 -49.783203 774.58008 A 183.37387 45.882066 0 0 0 -49.107422 777.39648 L -49.107422 771.78711 z "
         transform="scale(0.26458333)" />
      <rect
         style="fill:#d5f6ff;fill-opacity:1;stroke:none;stroke-width:2.13623;stroke-linecap:round"
         id="rect7101"
         width="317.53845"
         height="6.2557015"
         x="-0.042046081"
         y="0.069969922" />
      <rect
         style="fill:#d5f6ff;fill-opacity:1;stroke:none;stroke-width:1.74419;stroke-linecap:round"
         id="rect7101-1"
         width="211.68381"
         height="6.2557015"
         x="0.069969922"
         y="-317.4964"
         transform="rotate(90)" />
      <rect
         style="fill:#d5f6ff;fill-opacity:1;stroke:none;stroke-width:1.74364;stroke-linecap:round"
         id="rect7101-7"
         width="211.55089"
         height="6.2557001"
         x="0.010868589"
         y="-6.2136698"
         transform="matrix(-0.00146443,0.99999893,-0.99999976,-6.9601302e-4,0,0)" />
      <text
         xml:space="preserve"
         style="font-style:normal;font-weight:normal;font-size:6.1858px;line-height:1.25;font-family:sans-serif;fill:#000000;fill-opacity:1;stroke:none;stroke-width:0.154645"
         x="6.0308433"
         y="206.0266"
         id="text3583"><tspan
           sodipodi:role="line"
           id="tspan3581"
           style="stroke-width:0.154645"
           x="6.0308433"
           y="206.0266">DIARIO DE UN MAKER</tspan></text>
      <path
         style="fill:none;stroke:#000000;stroke-width:0.293078;stroke-linecap:butt;stroke-linejoin:miter;stroke-miterlimit:4;stroke-dasharray:none;stroke-opacity:1"
         d="m 72.423551,208.58276 3.66036,-3.48714"
         id="path12620" />
      <path
         style="fill:none;stroke:#000000;stroke-width:0.21638;stroke-linecap:butt;stroke-linejoin:miter;stroke-miterlimit:4;stroke-dasharray:none;stroke-opacity:1"
         d="m 73.992066,208.99083 2.475342,-2.35819"
         id="path12620-5" />
      <path
         sodipodi:type="star"
         style="fill:#d5f6ff;fill-opacity:1;stroke:none;stroke-width:1.28504;stroke-linecap:round;stroke-miterlimit:4;stroke-dasharray:none"
         id="path12895"
         inkscape:flatsided="false"
         sodipodi:sides="5"
         sodipodi:cx="283.19757"
         sodipodi:cy="544.65613"
         sodipodi:r1="26.457281"
         sodipodi:r2="13.22864"
         sodipodi:arg1="0.31871656"
         sodipodi:arg2="0.94703509"
         inkscape:rounded="0"
         inkscape:randomized="0"
         d="m 308.32242,552.94646 -17.3981,2.44719 -7.84732,15.71948 -7.70372,-15.79035 -17.37508,-2.60566 12.63695,-12.20616 -2.89107,-17.32987 15.51378,8.24654 15.58829,-8.1048 -3.0489,17.3028 z"
         transform="matrix(0.25195032,-0.12221853,0.12221853,0.25195032,-91.426079,93.486207)"
         inkscape:transform-center-x="-0.41263634"
         inkscape:transform-center-y="-0.30344944" />
      <path
         style="fill:#d5f6ff;stroke:none;stroke-width:0.264583px;stroke-linecap:butt;stroke-linejoin:miter;stroke-opacity:1;fill-opacity:1"
         d="M -0.04204608,0.06996992 22.052287,-0.02032364 0.07111365,21.96085 Z"
         id="path13530"
         sodipodi:nodetypes="cccc" />
      <path
         style="fill:#d5f6ff;fill-opacity:1;stroke:none;stroke-width:0.264583px;stroke-linecap:butt;stroke-linejoin:miter;stroke-opacity:1"
         d="M 317.4964,0.06996992 317.5867,22.16431 295.60552,0.18312992 Z"
         id="path13530-9"
         sodipodi:nodetypes="cccc" />
      <path
         style="fill:#d5f6ff;fill-opacity:1;stroke:none;stroke-width:0.264583px;stroke-linecap:butt;stroke-linejoin:miter;stroke-opacity:1"
         d="m 317.4964,211.75378 -22.09434,0.0903 21.98118,-21.98118 z"
         id="path13530-9-2"
         sodipodi:nodetypes="cccc" />
    </g>
  </g>
</svg>
